X:1
T:Title
%%score { ( 1 3 ) | ( 2 4 ) }
L:1/8
Q:1/4=100
M:4/4
K:C
V:1 treble nm="Grand Piano"
V:3 treble 
V:2 bass 
V:4 bass 
V:1
 E[DF][EG][FA] [EG]2 [Gc]2 | [FA][Ac][GB][FA] [EG]4 | DEFG B2 A2 | [EG]GAF E4 | EFGA G2 c-[Gc] | %5
w: D.~B.~Towner * * * * *|||||
 AccA [EG]4 | [FA][GB][Ac][FA] [EG]2 [Gc]2 | dABG [Ec]4 | [Fd]4 [FG]4 | [Cc]2 .G2 z4 | %10
w: |||||
 [CFA][CFA][CFA][CGB] [CAc][CFA][CFB][Fc] |[M:9/8] z3 z d2- d z z | %12
w: ||
[M:4/4] [Ge]2 [Fd]2 [Ec][CG][CE][DF] | [EG]2 [FA]2 [EG]4 | [FA][GB][Ac][FA] [EG]2 [Gc]2 | %15
w: |||
 dABG [Ec]4 |] %16
w: |
V:2
 [C,C][C,C][C,C][C,C] [C,C]2 [E,C]2 | [F,C][F,C][F,C][F,C] [C,C]4 | %2
 [G,B,][K:treble][G,CD][G,D][G,CE] [G,F]2 [G,B,F]2 | %3
 [C,C][E,C][K:treble][G,B,F][G,D][K:bass] [C,G,C]4 | [C,C][D,C][E,C][F,C] [E,C]2 z[K:treble] E | %5
 [F,CF][F,A,F][F,A,F][F,CF][K:bass] [C,C]4 | [F,C][F,C][F,C][F,C] [C,C]2 [E,C]2 | %7
 [F,CF][F,CF][G,F][G,F][K:bass] [C,G,]4 | [G,B,]G,G,G, G,2 G,2 | C,D,E,D, C,4 | %10
 F,F,F,F, F,F,F,[F,A,] |[M:9/8] z3 z[K:treble] [G,B,]2- [G,B,][K:bass] z z | %12
[M:4/4] [C,C]2 [C,C]2 [C,G,][C,E,][C,G,][C,C] | [C,C]2 [C,C]2 [C,C]4 | %14
 [F,C][F,C][F,C][F,C] [C,C]2 [E,C]2 | [F,CF][F,CF][G,F][G,F][K:bass] [C,G,]4 |] %16
V:3
 x8 | x8 | x8 | x8 | z4 z2 .[CE]2 | x8 | x8 | x8 | z B,B,B, B,2 D2 | EF[Cc]-[CFc] [CEc]4 | x8 | %11
[M:9/8] [^Fd]2 [Fd]- [Fd] z =F- F[Ec][Fd] |[M:4/4] x8 | x8 | x8 | x8 |] %16
V:4
 x8 | x8 | x[K:treble] x7 | x2[K:treble] x2[K:bass] x4 | z4 z2 C,2[K:treble] | x4[K:bass] x4 | x8 | %7
 x4[K:bass] x4 | x8 | x8 | x8 |[M:9/8] [D,A,]2 [D,C]- [D,C][K:treble] .G2 z[K:bass] [C,C][C,C] | %12
[M:4/4] x8 | x8 | x8 | x4[K:bass] x4 |] %16

